src/assets/Imgs/sns/nice_dark.svg

<svg fill="none" height="194" viewBox="0 0 194 194" width="194" xmlns="http://www.w3.org/2000/svg" xmlns:xlink="http://www.w3.org/1999/xlink"><filter id="a" color-interpolation-filters="sRGB" filterUnits="userSpaceOnUse" height="193.331" width="193.331" x=".334961" y=".334595"><feFlood flood-opacity="0" result="BackgroundImageFix"/><feColorMatrix in="SourceAlpha" result="hardAlpha" type="matrix" values="0 0 0 0 0 0 0 0 0 0 0 0 0 0 0 0 0 0 127 0"/><feOffset dx="10" dy="10"/><feGaussianBlur stdDeviation="5"/><feComposite in2="hardAlpha" operator="out"/><feColorMatrix type="matrix" values="0 0 0 0 0.0717255 0 0 0 0 0.0443455 0 0 0 0 0.239925 0 0 0 0.36 0"/><feBlend in2="BackgroundImageFix" mode="normal" result="effect1_dropShadow_743_6989"/><feBlend in="SourceGraphic" in2="effect1_dropShadow_743_6989" mode="normal" result="shape"/></filter><linearGradient id="b" gradientUnits="userSpaceOnUse" x1="76.8249" x2="111.387" y1="93.1741" y2="173.665"><stop offset="0" stop-color="#fff"/><stop offset="1" stop-color="#fbecff"/></linearGradient><linearGradient id="c" gradientUnits="userSpaceOnUse" x1="57.895" x2="57.895" y1="70.5316" y2="114.73"><stop offset="0" stop-color="#c9aaff"/><stop offset="1" stop-color="#c9aaff" stop-opacity="0"/></linearGradient><linearGradient id="d" gradientUnits="userSpaceOnUse" x1="95.0372" x2="95.0372" y1="61.1665" y2="124.68"><stop offset="0" stop-color="#5200ff"/><stop offset="1" stop-color="#5200ff" stop-opacity="0"/></linearGradient><linearGradient id="e" gradientUnits="userSpaceOnUse" x1="81.6799" x2="81.6799" y1="34.0852" y2="41.237"><stop offset="0" stop-color="#b592ff"/><stop offset="1" stop-color="#f2ecff"/></linearGradient><linearGradient id="f" gradientUnits="userSpaceOnUse" x1="129.51" x2="129.51" y1="60.2164" y2="71.2853"><stop offset="0" stop-color="#b592ff"/><stop offset="1" stop-color="#e7dcff" stop-opacity=".42"/></linearGradient><linearGradient id="g" gradientUnits="userSpaceOnUse" x1="112.657" x2="112.657" y1="27.8369" y2="50.4733"><stop offset="0" stop-color="#5200ff"/><stop offset="1" stop-color="#dac8ff" stop-opacity=".44"/></linearGradient><g filter="url(#a)"><circle cx="87.0003" cy="87" fill="url(#b)" r="86.6654"/></g><path clip-rule="evenodd" d="m62.2867 70.6596c-3.1202-.6633-6.1918 1.3165-6.855 4.4366l-6.8453 32.2038c-.6614 3.112 1.3377 6.179 4.4578 6.842l2.423.515c1.7867.38 3.541-.76 3.919-2.537l7.8715-37.0334c.3779-1.778-.7613-3.5322-2.548-3.9121z" fill="url(#c)" fill-rule="evenodd"/><path clip-rule="evenodd" d="m91.1154 58.0544-6.3719 12.4919c-1.3174 2.5986-4.2351 3.9824-7.0938 3.3748l-1.6212-.3446c-1.7867-.3798-3.541.7595-3.9189 2.5375l-7.8734 37.041c-.1797.846-.0139 1.738.4664 2.477.4736.729 1.2293 1.245 2.0835 1.427l34.8279 7.402c4.297.914 8.678-1.097 10.779-4.941l12.324-22.6226c1.483-2.7364 1.589-6.0206.278-8.85-1.31-2.8381-3.889-4.8894-6.948-5.5396l-12.891-2.74c-1.786-.3798-2.928-2.1254-2.55-3.9034l3.079-14.4854c.758-3.5647-1.522-7.0647-5.105-7.826-3.8083-.8096-7.6979 1.0327-9.4646 4.5014z" fill="url(#d)" fill-rule="evenodd"/><path d="m81.6799 34.0852.5057 3.0702 3.0702.5057-3.0702.5057-.5057 3.0702-.5057-3.0702-3.0702-.5057 3.0702-.5057z" fill="url(#e)"/><path d="m129.51 60.2164.782 4.7518 4.752.7827-4.752.7826-.782 4.7518-.783-4.7518-4.752-.7826 4.752-.7827z" fill="url(#f)"/><path d="m112.657 27.8369 1.601 9.7176 9.717 1.6006-9.717 1.6007-1.601 9.7175-1.601-9.7175-9.717-1.6007 9.717-1.6006z" fill="url(#g)"/></svg>

<svg width="194" height="194" viewBox="0 0 194 194" fill="none" xmlns="http://www.w3.org/2000/svg">
<g id="Group 1202">
<g id="Ellipse 425" filter="url(#filter0_d_743_6989)">
<circle cx="87.0003" cy="87" r="86.6654" fill="url(#paint0_linear_743_6989)"/>
</g>
<g id="Group">
<path id="&#232;&#183;&#175;&#229;&#190;&#132;" fill-rule="evenodd" clip-rule="evenodd" d="M62.2867 70.6596C59.1665 69.9963 56.0949 71.9761 55.4317 75.0962L48.5864 107.3C47.925 110.412 49.9241 113.479 53.0442 114.142L55.4672 114.657C57.2539 115.037 59.0082 113.897 59.3862 112.12L67.2577 75.0866C67.6356 73.3086 66.4964 71.5544 64.7097 71.1745L62.2867 70.6596Z" fill="url(#paint1_linear_743_6989)"/>
<path id="&#232;&#183;&#175;&#229;&#190;&#132;_2" fill-rule="evenodd" clip-rule="evenodd" d="M91.1154 58.0544L84.7435 70.5463C83.4261 73.1449 80.5084 74.5287 77.6497 73.9211L76.0285 73.5765C74.2418 73.1967 72.4875 74.336 72.1096 76.114L64.2362 113.155C64.0565 114.001 64.2223 114.893 64.7026 115.632C65.1762 116.361 65.9319 116.877 66.7861 117.059L101.614 124.461C105.911 125.375 110.292 123.364 112.393 119.52L124.717 96.8974C126.2 94.161 126.306 90.8768 124.995 88.0474C123.685 85.2093 121.106 83.158 118.047 82.5078L105.156 79.7678C103.37 79.388 102.228 77.6424 102.606 75.8644L105.685 61.379C106.443 57.8143 104.163 54.3143 100.58 53.553C96.7717 52.7434 92.8821 54.5857 91.1154 58.0544Z" fill="url(#paint2_linear_743_6989)"/>
</g>
<path id="Star 1" d="M81.6799 34.0852L82.1856 37.1554L85.2558 37.6611L82.1856 38.1668L81.6799 41.237L81.1742 38.1668L78.104 37.6611L81.1742 37.1554L81.6799 34.0852Z" fill="url(#paint3_linear_743_6989)"/>
<path id="Star 3" d="M129.51 60.2164L130.292 64.9682L135.044 65.7509L130.292 66.5335L129.51 71.2853L128.727 66.5335L123.975 65.7509L128.727 64.9682L129.51 60.2164Z" fill="url(#paint4_linear_743_6989)"/>
<path id="Star 2" d="M112.657 27.8369L114.258 37.5545L123.975 39.1551L114.258 40.7558L112.657 50.4733L111.056 40.7558L101.339 39.1551L111.056 37.5545L112.657 27.8369Z" fill="url(#paint5_linear_743_6989)"/>
</g>
<defs>
<filter id="filter0_d_743_6989" x="0.334961" y="0.334595" width="193.331" height="193.331" filterUnits="userSpaceOnUse" color-interpolation-filters="sRGB">
<feFlood flood-opacity="0" result="BackgroundImageFix"/>
<feColorMatrix in="SourceAlpha" type="matrix" values="0 0 0 0 0 0 0 0 0 0 0 0 0 0 0 0 0 0 127 0" result="hardAlpha"/>
<feOffset dx="10" dy="10"/>
<feGaussianBlur stdDeviation="5"/>
<feComposite in2="hardAlpha" operator="out"/>
<feColorMatrix type="matrix" values="0 0 0 0 0.0717255 0 0 0 0 0.0443455 0 0 0 0 0.239925 0 0 0 0.36 0"/>
<feBlend mode="normal" in2="BackgroundImageFix" result="effect1_dropShadow_743_6989"/>
<feBlend mode="normal" in="SourceGraphic" in2="effect1_dropShadow_743_6989" result="shape"/>
</filter>
<linearGradient id="paint0_linear_743_6989" x1="76.8249" y1="93.1741" x2="111.387" y2="173.665" gradientUnits="userSpaceOnUse">
<stop stop-color="white"/>
<stop offset="1" stop-color="#FBECFF"/>
</linearGradient>
<linearGradient id="paint1_linear_743_6989" x1="57.895" y1="70.5316" x2="57.895" y2="114.73" gradientUnits="userSpaceOnUse">
<stop stop-color="#C9AAFF"/>
<stop offset="1" stop-color="#C9AAFF" stop-opacity="0"/>
</linearGradient>
<linearGradient id="paint2_linear_743_6989" x1="95.0372" y1="61.1665" x2="95.0372" y2="124.68" gradientUnits="userSpaceOnUse">
<stop stop-color="#5200FF"/>
<stop offset="1" stop-color="#5200FF" stop-opacity="0"/>
</linearGradient>
<linearGradient id="paint3_linear_743_6989" x1="81.6799" y1="34.0852" x2="81.6799" y2="41.237" gradientUnits="userSpaceOnUse">
<stop stop-color="#B592FF"/>
<stop offset="1" stop-color="#F2ECFF"/>
</linearGradient>
<linearGradient id="paint4_linear_743_6989" x1="129.51" y1="60.2164" x2="129.51" y2="71.2853" gradientUnits="userSpaceOnUse">
<stop stop-color="#B592FF"/>
<stop offset="1" stop-color="#E7DCFF" stop-opacity="0.42"/>
</linearGradient>
<linearGradient id="paint5_linear_743_6989" x1="112.657" y1="27.8369" x2="112.657" y2="50.4733" gradientUnits="userSpaceOnUse">
<stop stop-color="#5200FF"/>
<stop offset="1" stop-color="#DAC8FF" stop-opacity="0.44"/>
</linearGradient>
</defs>
</svg>
